images_sukapura_svg/cmd/lc_setoptimalrowheight.svg

<svg viewBox="0 0 24 24" xmlns="http://www.w3.org/2000/svg" xmlns:xlink="http://www.w3.org/1999/xlink"><linearGradient id="a" gradientTransform="translate(75 -7)" gradientUnits="userSpaceOnUse" x1="14" x2="13.79661" y1="22" y2="2.135593"><stop offset="0" stop-color="#0040dd"/><stop offset="1" stop-color="#0a84ff"/></linearGradient><linearGradient id="b" gradientUnits="userSpaceOnUse" x1="12.5" x2="12.5" xlink:href="#a" y1="9" y2="1"/><linearGradient id="c" gradientTransform="matrix(1 0 0 -1 0 24.999934)" gradientUnits="userSpaceOnUse" x1="15" x2="15" xlink:href="#a" y1=".999934" y2="8.499934"/><path d="m3 11v4h18v-4z" fill="#fff"/><path d="m2 10v1 4h1 5 1 6 1 5 1v-4-1zm1 1h5 1 6 1 5v3h-5-1-6-1-5z" fill="#69696e"/><g fill="#4d82b8" fill-rule="evenodd"><path d="m12.478516 23.999934a.49948816.49960054 0 0 1 -.394532-.203125l-2.943359-2.949219a.50007538.50018789 0 0 1 .4257812-.847656h1.4335938v-3.5c0-.277.223-.5.5-.5h1.003906.996094c.277 0 .5.223.5.5v3.5h1.394531a.49948816.49960054 0 0 1 .445313.84961l-2.957032 2.955078a.49948816.49960054 0 0 1 -.404296.195312z" fill="url(#c)"/><path d="m12.478516 1a.49948816.49960054 0 0 0 -.394532.203125l-2.943359 2.9492188a.50007538.50018789 0 0 0 .4257812.8476562h1.4335938v3.5c0 .277.223.5.5.5h1.003906.996094c.277 0 .5-.223.5-.5v-3.5h1.394531a.49948816.49960054 0 0 0 .445313-.8496094l-2.957032-2.9550781a.49948816.49960054 0 0 0 -.404296-.1953125z" fill="url(#b)"/></g><path d="m8 11v3h1v-3zm7 0v3h1v-3z" fill="#bababa"/></svg>

<?xml version="1.0" encoding="UTF-8" standalone="no"?>
<svg
   xmlns:dc="http://purl.org/dc/elements/1.1/"
   xmlns:cc="http://creativecommons.org/ns#"
   xmlns:rdf="http://www.w3.org/1999/02/22-rdf-syntax-ns#"
   xmlns:svg="http://www.w3.org/2000/svg"
   xmlns="http://www.w3.org/2000/svg"
   xmlns:xlink="http://www.w3.org/1999/xlink"
   xmlns:sodipodi="http://sodipodi.sourceforge.net/DTD/sodipodi-0.dtd"
   xmlns:inkscape="http://www.inkscape.org/namespaces/inkscape"
   viewBox="0 0 24 24"
   version="1.1"
   id="svg12"
   sodipodi:docname="lc_setoptimalrowheight.svg"
   inkscape:version="0.92.3 (unknown)">
  <metadata
     id="metadata18">
    <rdf:RDF>
      <cc:Work
         rdf:about="">
        <dc:format>image/svg+xml</dc:format>
        <dc:type
           rdf:resource="http://purl.org/dc/dcmitype/StillImage" />
        <dc:title></dc:title>
      </cc:Work>
    </rdf:RDF>
  </metadata>
  <defs
     id="defs16">
    <linearGradient
       gradientTransform="translate(75,-7)"
       id="a-367"
       gradientUnits="userSpaceOnUse"
       x1="14"
       x2="13.79661"
       y1="22"
       y2="2.1355929">
      <stop
         offset="0"
         stop-color="#0040dd"
         id="stop2206" />
      <stop
         offset="1"
         stop-color="#0a84ff"
         id="stop2208" />
    </linearGradient>
    <linearGradient
       inkscape:collect="always"
       xlink:href="#a-367"
       id="linearGradient879"
       x1="12.5"
       y1="9"
       x2="12.5"
       y2="1"
       gradientUnits="userSpaceOnUse" />
    <linearGradient
       inkscape:collect="always"
       xlink:href="#a-367"
       id="linearGradient883"
       gradientUnits="userSpaceOnUse"
       x1="15"
       y1="0.99993402"
       x2="15"
       y2="8.4999342"
       gradientTransform="matrix(1,0,0,-1,0,24.999934)" />
  </defs>
  <sodipodi:namedview
     pagecolor="#ffffff"
     bordercolor="#666666"
     borderopacity="1"
     objecttolerance="10"
     gridtolerance="10"
     guidetolerance="10"
     inkscape:pageopacity="0"
     inkscape:pageshadow="2"
     inkscape:window-width="1366"
     inkscape:window-height="706"
     id="namedview14"
     showgrid="true"
     inkscape:zoom="4.9166667"
     inkscape:cx="4.4640581"
     inkscape:cy="-19.452297"
     inkscape:window-x="0"
     inkscape:window-y="0"
     inkscape:window-maximized="1"
     inkscape:current-layer="svg12">
    <inkscape:grid
       type="xygrid"
       id="grid828"
       spacingx="0.5"
       spacingy="0.5"
       empspacing="2" />
  </sodipodi:namedview>
  <path
     d="m3 11v4h18v-4z"
     fill="#fff"
     id="path2" />
  <path
     style="fill:#69696e;fill-opacity:1"
     d="M 2 10 L 2 11 L 2 15 L 3 15 L 8 15 L 9 15 L 15 15 L 16 15 L 21 15 L 22 15 L 22 11 L 22 10 L 2 10 z M 3 11 L 8 11 L 9 11 L 15 11 L 16 11 L 21 11 L 21 14 L 16 14 L 15 14 L 9 14 L 8 14 L 3 14 L 3 11 z "
     id="path4" />
  <g
     fill="#4d82b8"
     fill-rule="evenodd"
     id="g10">
    <path
       style="fill:url(#linearGradient883);fill-opacity:1"
       id="path881"
       d="M 12.478516,23.999934 A 0.49948816,0.49960054 0 0 1 12.083984,23.796809 L 9.140625,20.84759 A 0.50007538,0.50018789 0 0 1 9.5664062,19.999934 H 11 v -3.5 c 0,-0.277 0.223,-0.5 0.5,-0.5 H 12.503906 13.5 c 0.277,0 0.5,0.223 0.5,0.5 v 3.5 h 1.394531 a 0.49948816,0.49960054 0 0 1 0.445313,0.84961 l -2.957032,2.955078 a 0.49948816,0.49960054 0 0 1 -0.404296,0.195312 z"
       inkscape:connector-curvature="0" />
    <path
       d="M 12.478516 1 A 0.49948816 0.49960054 0 0 0 12.083984 1.203125 L 9.140625 4.1523438 A 0.50007538 0.50018789 0 0 0 9.5664062 5 L 11 5 L 11 8.5 C 11 8.777 11.223 9 11.5 9 L 12.503906 9 L 13.5 9 C 13.777 9 14 8.777 14 8.5 L 14 5 L 15.394531 5 A 0.49948816 0.49960054 0 0 0 15.839844 4.1503906 L 12.882812 1.1953125 A 0.49948816 0.49960054 0 0 0 12.478516 1 z "
       id="path8"
       style="fill-opacity:1;fill:url(#linearGradient879)" />
  </g>
  <path
     style="fill:#bababa;fill-opacity:1"
     d="M 8 11 L 8 14 L 9 14 L 9 11 L 8 11 z M 15 11 L 15 14 L 16 14 L 16 11 L 15 11 z "
     id="rect863" />
</svg>
